Assets/Icons/transport & logistic/box-open.svg

<svg enable-background="new 0 0 60 60" viewBox="0 0 60 60" xmlns="http://www.w3.org/2000/svg"><path d="m56.95 15.32-18.01-8.54c-.72-.34-1.57-.22-2.17.3l-6.77 5.93-6.77-5.92c-.6-.52-1.45-.64-2.17-.3l-18.01 8.53c-1.3.62-1.54 2.36-.46 3.31l6.38 5.58-4.8 6.4c-.76 1.01-.4 2.47.74 3.01l4.59 2.17v.88c0 4.44 2.56 8.49 6.58 10.39l13.07 6.19c.54.26 1.17.26 1.71 0l18.5-8.76c.7-.33 1.14-1.03 1.14-1.81v-6.89l4.59-2.17c1.14-.54 1.5-2 .74-3.01l-4.8-6.4 6.38-5.58c1.09-.95.84-2.7-.46-3.31zm-26.95 16.02-15.5-7.34 15.5-7.34 15.5 7.34zm-8.25-21.56 5.54 4.85-16.04 7.6-5.54-4.85zm-10.28 16.1 16.23 7.69-4.16 5.55-16.24-7.69zm1.07 11.35 10.45 4.95c.86.41 1.89.15 2.46-.61l3.06-4.07v12.13l-11.14-5.28c-2.81-1.32-4.63-4.06-4.83-7.12zm34.96 4.82-16 7.58v-12.13l3.06 4.07c.57.76 1.6 1.01 2.46.61l10.49-4.97v4.84zm-11.04-2.93-4.16-5.55 16.23-7.69 4.16 5.55zm12.29-16.9-16.04-7.6 5.54-4.85 16.04 7.6z"/></svg>

<?xml version="1.0" encoding="utf-8"?>
<!-- Generator: Adobe Illustrator 21.1.0, SVG Export Plug-In . SVG Version: 6.00 Build 0)  -->
<svg version="1.1" id="EPS" xmlns="http://www.w3.org/2000/svg" xmlns:xlink="http://www.w3.org/1999/xlink" x="0px" y="0px"
	 viewBox="0 0 60 60" style="enable-background:new 0 0 60 60;" xml:space="preserve">
<path d="M56.95,15.32L38.94,6.78c-0.72-0.34-1.57-0.22-2.17,0.3L30,13.01l-6.77-5.92c-0.6-0.52-1.45-0.64-2.17-0.3L3.05,15.32
	c-1.3,0.62-1.54,2.36-0.46,3.31l6.38,5.58l-4.8,6.4c-0.76,1.01-0.4,2.47,0.74,3.01l4.59,2.17v0.88c0,4.44,2.56,8.49,6.58,10.39
	l13.07,6.19c0.54,0.26,1.17,0.26,1.71,0l18.5-8.76c0.7-0.33,1.14-1.03,1.14-1.81v-6.89l4.59-2.17c1.14-0.54,1.5-2,0.74-3.01
	l-4.8-6.4l6.38-5.58C58.5,17.68,58.25,15.93,56.95,15.32z M30,31.34L14.5,24L30,16.66L45.5,24L30,31.34z M21.75,9.78l5.54,4.85
	l-16.04,7.6l-5.54-4.85L21.75,9.78z M11.47,25.88l16.23,7.69l-4.16,5.55L7.3,31.43L11.47,25.88z M12.54,37.23l10.45,4.95
	c0.86,0.41,1.89,0.15,2.46-0.61l3.06-4.07v12.13l-11.14-5.28C14.56,43.03,12.74,40.29,12.54,37.23z M47.5,42.05l-16,7.58V37.5
	l3.06,4.07c0.57,0.76,1.6,1.01,2.46,0.61l10.49-4.97v4.84H47.5z M36.46,39.12l-4.16-5.55l16.23-7.69l4.16,5.55L36.46,39.12z
	 M48.75,22.22l-16.04-7.6l5.54-4.85l16.04,7.6L48.75,22.22z"/>
</svg>
